24x24/apps/cen64-qt.svg

<svg height="24" width="24" xmlns="http://www.w3.org/2000/svg"><g transform="translate(1 1)"><rect height="20" opacity=".2" ry="6" width="20" x="1" y="1.5"/><rect fill="#80cb1e" height="20" ry="6" width="20" x="1" y="1"/><path d="m9 7.5v1.5s0 1.5 2 1.5 2-1.5 2-1.5v-1.5z" opacity=".1"/><path d="m7 7.5c-1.083 0-2.106.108-2.908.809s-1.092 1.804-1.092 3.185v4.006a1 1 0 1 0 2 0l-.002-4.006c0-1.114.21-1.506.408-1.68.198-.173.677-.316 1.594-.316h8c.875 0 1.335.169 1.568.387s.434.634.434 1.61l-.002 4.005a1 1 0 1 0 2 0v-4.006c0-1.271-.3-2.35-1.066-3.068-.767-.718-1.81-.926-2.934-.926z" opacity=".1"/><path d="m7 7c-1.083 0-2.106.108-2.908.809s-1.092 1.804-1.092 3.185v4.006a1 1 0 1 0 2 0l-.002-4.006c0-1.114.21-1.506.408-1.68.198-.173.677-.316 1.594-.316h8c.875 0 1.335.169 1.568.387s.434.634.434 1.61l-.002 4.005a1 1 0 1 0 2 0v-4.006c0-1.271-.3-2.35-1.066-3.068-.767-.718-1.81-.926-2.934-.926z" fill="#4f4f4f"/><path d="m9 7v1.5s0 1.5 2 1.5 2-1.5 2-1.5v-1.5z" fill="#4f4f4f"/><circle cx="7" cy="12.5" opacity=".1" r="1"/><circle cx="7" cy="12" fill="#4f4f4f" r="1"/><circle cx="15" cy="12.5" opacity=".1" r="1"/><circle cx="15" cy="12" fill="#4f4f4f" r="1"/><circle cx="9.5" cy="12.5" opacity=".1" r="1"/><circle cx="9.5" cy="12" fill="#4f4f4f" r="1"/><circle cx="12.5" cy="12.5" opacity=".1" r="1"/><circle cx="12.5" cy="12" fill="#4f4f4f" r="1"/><path d="m7 1c-3.324 0-6 2.676-6 6v.5c0-3.324 2.676-6 6-6h8c3.324 0 6 2.676 6 6v-.5c0-3.324-2.676-6-6-6z" fill="#f4f4f7" opacity=".2"/></g></svg>

<svg height="24" width="24" xmlns="http://www.w3.org/2000/svg">
    <g transform="translate(1 1)">
        <rect height="20" opacity=".2" ry="6" width="20" x="1" y="1.5"/>
        <rect fill="#80cb1e" height="20" ry="6" width="20" x="1" y="1"/>
        <path d="M9 7.5V9s0 1.5 2 1.5S13 9 13 9V7.5z" opacity=".1"/>
        <path d="M7 7.5c-1.083 0-2.106.108-2.908.809S3 10.113 3 11.494V15.5a1 1 0 1 0 2 0l-.002-4.006c0-1.114.21-1.506.408-1.68.198-.173.677-.316 1.594-.316h8c.875 0 1.335.169 1.568.387s.434.634.434 1.61L17 15.5a1 1 0 1 0 2 0v-4.006c0-1.271-.3-2.35-1.066-3.068-.767-.718-1.81-.926-2.934-.926z" opacity=".1"/>
        <path d="M7 7c-1.083 0-2.106.108-2.908.809S3 9.613 3 10.994V15a1 1 0 1 0 2 0l-.002-4.006c0-1.114.21-1.506.408-1.68.198-.173.677-.316 1.594-.316h8c.875 0 1.335.169 1.568.387s.434.634.434 1.61L17 15a1 1 0 1 0 2 0v-4.006c0-1.271-.3-2.35-1.066-3.068C17.167 7.208 16.124 7 15 7z" fill="#4f4f4f"/>
        <path d="M9 7v1.5S9 10 11 10s2-1.5 2-1.5V7z" fill="#4f4f4f"/>
        <circle cx="7" cy="12.5" opacity=".1" r="1"/>
        <circle cx="7" cy="12" fill="#4f4f4f" r="1"/>
        <circle cx="15" cy="12.5" opacity=".1" r="1"/>
        <circle cx="15" cy="12" fill="#4f4f4f" r="1"/>
        <circle cx="9.5" cy="12.5" opacity=".1" r="1"/>
        <circle cx="9.5" cy="12" fill="#4f4f4f" r="1"/>
        <circle cx="12.5" cy="12.5" opacity=".1" r="1"/>
        <circle cx="12.5" cy="12" fill="#4f4f4f" r="1"/>
        <path d="M7 1C3.676 1 1 3.676 1 7v.5c0-3.324 2.676-6 6-6h8c3.324 0 6 2.676 6 6V7c0-3.324-2.676-6-6-6z" fill="#f4f4f7" opacity=".2"/>
    </g>
</svg>
